X: 1
T: Fisherman's Dodgy Punch, The
M: 9/8
L: 1/8
R: slip jig
K: Edor
|:edB ABd e2g|g2b bab g3|edB AGA B2d|B2G GAG E2G:|
|:Bee efe d2B|Bee g2a b2a|Bee efe dBA|BAB GBd e2g:|
